X:143
T: WOLLT IHR WISSEN
N: K2239A
O: Europa, Mitteleuropa, Deutschland, Dillkreis; Lahnkreis
R: Kinder - Lied, Reigen, Tanz, Nachahmungs - Spiel
M: 3/4
L: 1/16
K: G
G2B2 | d4d4e2d2 | d3cB4
G2B2 | d4d4e2d2 | d3cB4
G2G2 | B4A4D4 | G8
G4 | d8e2d2 | d3cB4
(3G2G2G2 | B4A4D4 | G8
G4 | d8e2d2 | d3cB4
(3G2G2G2 | B4A4D4 | G12

@@@ Tune index: 7480
